svgs/sharp-regular/arrow-down-1-9.svg

<svg xmlns="http://www.w3.org/2000/svg" viewBox="0 0 576 512"><!--! Font Awesome Pro 6.6.0 by @fontawesome - https://fontawesome.com License - https://fontawesome.com/license (Commercial License) Copyright 2024 Fonticons, Inc. --><path d="M160 478.7l-17-17-96-96-17-17L64 314.9l17 17 55 55L136 56l0-24 48 0 0 24 0 330.9 55-55 17-17 33.9 33.9-17 17-96 96-17 17zM360 32l24 0 48 0 24 0 0 24 0 120 24 0 24 0 0 48-24 0-48 0-48 0-24 0 0-48 24 0 24 0 0-96-24 0-24 0 0-48zm24 312a40 40 0 1 0 80 0 40 40 0 1 0 -80 0zm128 0c0 20.6-6.4 40.7-18.4 57.5L437.5 480l-59 0 10-13.9 24.8-34.7C369.7 426.1 336 389 336 344c0-48.6 39.4-88 88-88s88 39.4 88 88z"/></svg>

<svg xmlns="http://www.w3.org/2000/svg" viewBox="0 0 576 512"><!--! Font Awesome Pro 6.4.0 by @fontawesome - https://fontawesome.com License - https://fontawesome.com/license (Commercial License) Copyright 2023 Fonticons, Inc. --><path d="M160 478.7l-17-17-96-96-17-17L64 314.9l17 17 55 55V56 32h48V56 386.9l55-55 17-17 33.9 33.9-17 17-96 96-17 17zM360 32h24 48 24V56 176h24 24v48H480 432 384 360V176h24 24V80H384 360V32zm24 312a40 40 0 1 0 80 0 40 40 0 1 0 -80 0zm128 0c0 20.6-6.4 40.7-18.4 57.5L437.5 480h-59l10-13.9 24.8-34.7C369.7 426.1 336 389 336 344c0-48.6 39.4-88 88-88s88 39.4 88 88z"/></svg>
